docs/custom_svgs/wall-fuzo-h.svg

<svg viewBox="0 0 24 24" height="24px" width="24px" fill="#44739e" xmlns="http://www.w3.org/2000/svg"><title>hue:wall-fuzo-h</title><desc>Source: https://github.com/arallsopp/hass-hue-icons</desc><path d="M 12.90625,1.3671875 2.3847656,5.8808594 2.3515625,20.21875 12.271484,22.03125 22.285156,19.615234 V 6.3261719 L 21.521484,5.9453125 19.074219,6.7402344 19.105469,8.9648438 14.009773,6.6056662 V 4.2541037 1.9005881 Z m 1.093031,12.7091815 5.106188,1.595506 0.03125,3.08252 c 0,0 -0.0042,0.116765 -0.07617,0.216797 -0.072,0.100033 -0.240235,0.132812 -0.240235,0.132812 L 13.06661,20.593589 7.1523458,19.455078 14.009775,17.636916 Z"/></svg>

<svg viewBox="0 0 24 24" height="24px" width="24px" fill="#44739e" xmlns="http://www.w3.org/2000/svg"><title>hue:wall-fuzo-h</title><desc>Source: https://github.com/arallsopp/hass-hue-icons</desc><path d="M12.91,1.37L2.38,5.88L2.35,20.22l9.92,1.81l10.01-2.42V6.33l-0.76-0.38l-2.45,0.79l0.03,2.22l-5.1-2.36V4.25 V1.9L12.91,1.37z M14,14.08l5.11,1.6l0.03,3.08c0,0,0,0.12-0.08,0.22c-0.07,0.1-0.24,0.13-0.24,0.13l-5.75,1.49l-5.91-1.14 l6.86-1.82L14,14.08z"/></svg>
